X:1
T:Feed My Horse on Corn and Hay
M:C|
L:1/8
R:Reel
N:ABCBCBC
S:Buddy Thomas
Z:AK/Fiddler's Companion [from Erynn Marshall's recording]
Z: Contributed 2016-03-09 03:36:33 by Jim Gaskins  fiddleji@comcast.net
K:G
DE|G2G2G2GG|Bd2d d2DE|G2GGG2 BG|AG2G G2DE|
G2G2BAGA|Bd2d d2[A2e2]-|[A2e2] ef edBG|A[G2B2]G[G2B2](G,||
G,)B,DF EFGA|Bd [d2g2][d4g4]|G,B,DF EFGA|BGAF G2G2|
G,B,DF EFGA|Bd [d2g2][d4g4]|[e2e2]ef edBG|A[G2B2]G [GB]Agf||
ed2 d d2eg|f d2d d2 ef|gage dBed|BGAF G2 gf|
ed2 d d2fd|e d2d d2ef|g2g2 edBG|A[G2B2]G[G2B2](G,||"to the 2nd part"
